icons/math.svg

<svg width="24" height="24" viewBox="0 0 24 24" fill="none" xmlns="http://www.w3.org/2000/svg">
<path fill-rule="evenodd" clip-rule="evenodd" d="M12.1623 3.72925C12.2836 3.29797 12.677 3 13.125 3H21C21.5523 3 22 3.44772 22 4C22 4.55228 21.5523 5 21 5H13.8825L9.58765 20.2707C9.47549 20.6696 9.12902 20.9579 8.71648 20.9958C8.30393 21.0337 7.91073 20.8133 7.72779 20.4416L4.62763 14.1429H3C2.44772 14.1429 2 13.6951 2 13.1429C2 12.5906 2.44772 12.1429 3 12.1429H5.25C5.63103 12.1429 5.97895 12.3594 6.14721 12.7013L8.36924 17.2159L12.1623 3.72925ZM15.7985 12.4302C16.1921 12.0428 16.8252 12.0478 17.2127 12.4413L18.75 14.0031L20.2873 12.4413C20.6748 12.0478 21.3079 12.0428 21.7015 12.4302C22.0951 12.8176 22.1001 13.4508 21.7127 13.8444L20.1532 15.4286L21.7127 17.0128C22.1001 17.4064 22.0951 18.0395 21.7015 18.4269C21.3079 18.8144 20.6748 18.8094 20.2873 18.4158L18.75 16.8541L17.2127 18.4158C16.8252 18.8094 16.1921 18.8144 15.7985 18.4269C15.4049 18.0395 15.3999 17.4064 15.7873 17.0128L17.3468 15.4286L15.7873 13.8444C15.3999 13.4508 15.4049 12.8176 15.7985 12.4302Z" fill="black"/>
</svg>

<svg
  width="24"
  height="24"
  viewBox="0 0 24 24"
  xmlns="http://www.w3.org/2000/svg"
>
  <path
    fill-rule="evenodd"
    clip-rule="evenodd"
    d="M12.162 3.73a1 1 0 0 1 .963-.73H21a1 1 0 1 1 0 2h-7.117L9.588 20.27a1 1 0 0 1-1.86.172l-3.1-6.3H3a1 1 0 0 1 0-2h2.25a1 1 0 0 1 .897.56l2.222 4.514 3.793-13.487zm3.636 8.7a1 1 0 0 1 1.415.011l1.537 1.562 1.537-1.562a1 1 0 0 1 1.426 1.403l-1.56 1.585 1.56 1.584a1 1 0 1 1-1.426 1.403l-1.537-1.562-1.537 1.562a1 1 0 0 1-1.426-1.403l1.56-1.584-1.56-1.585a1 1 0 0 1 .011-1.414z"
  />
</svg>
